X:1
T:Chimes, CM
T:Chimes, CM
T:Lowell Mason, 1840
T:Public Domain Courtesy of the Cyber Hymnal™
C:Lowell Mason, 1840
Z:Public Domain
Z:Courtesy of the Cyber Hymnal™
%%score ( 1 2 ) ( 3 4 )
L:1/8
M:3/4
K:Bb
V:1 treble 
V:2 treble 
V:3 bass 
V:4 bass 
V:1
 [B,D]2 | [B,D]4 [DF]2 | F4 [FB]2 | ([FG]2 [Ec]2) [EA]2 | [DB]4 [Fc]2 | (d2 B2) [DG]2 | %6
 ([CF]2 [=EA]2) [EG]2 | F4 [DF]2 | (G2 B2) [EG]2 | ([DF]2 [B,D]2) [DF]2 | (G2 B2) [EG]2 x2 | %11
 [DF]4 [EF]2 | (F2 B2) [Fd]2 | [FG]2 [Ec]2 [EA]2 | [DB]4 |] %15
V:2
 x2 | x6 | (D2 E2) x2 | x6 | x6 | D4 x2 | x6 | F4 x2 | E4 x2 | x6 | E4 x4 | x6 | D4 x2 | x6 | x4 |] %15
V:3
 [B,,F,]2 | [B,,F,]4 [B,,B,]2 | ([B,,B,]2 [C,A,]2) [D,B,]2 | ([E,B,]2 [C,C]2) [F,C]2 | %4
 [B,,B,]4 [F,A,]2 | (B,2 G,2) [B,,B,]2 | (A,2 D2) [C,C]2 | [F,A,]4 [B,,B,]2 | (B,2 G,2) [E,B,]2 | %9
 (B,2 F,2) [B,,B,]2 | B,4 G,2 [A,C]2 | [B,D]4 [A,C]2 | B,4 [D,B,]2 | [E,B,]2 [C,E]2 [F,C]2 | %14
 [B,,B,]4 |] %15
V:4
 x2 | x6 | x6 | x6 | x6 | B,,4 x2 | C,4 x2 | x6 | E,4 x2 | B,,4 x2 | E,2 x6 | x6 | B,4 x2 | x6 | %14
 x4 |] %15

